public/topics/35.svg

<svg width="250" height="250" viewBox="0 0 250 250" fill="none" xmlns="http://www.w3.org/2000/svg">
<rect width="250" height="250" rx="30" fill="#666633"/>
<path d="M81 115C91.9333 117.4 101 122.133 108.2 129.2C115.4 136.267 119 144.467 119 153.8C119 159.4 117.667 164.867 115 170.2C110.733 178.733 104.333 185.133 95.8 189.4C87.4 193.667 77.6667 195.8 66.6 195.8C59.6667 195.8 53.4667 194.533 48 192C42.5333 189.333 37.1333 185.8 31.8 181.4C29.8 179.533 28 176.867 26.4 173.4C24.9333 169.933 24.2 167.067 24.2 164.8C24.2 161.867 25 159.533 26.6 157.8C28.3333 155.933 30.6 155 33.4 155C36.2 155 38.4 155.667 40 157C41.6 158.333 43.5333 160.467 45.8 163.4C47.9333 166.2 49.8667 168.467 51.6 170.2C53.3333 171.8 55.6667 173.2 58.6 174.4C61.5333 175.6 65.2 176.2 69.6 176.2C78.5333 176.2 85.5333 174 90.6 169.6C95.6667 165.2 98.2 159 98.2 151C98.2 147.933 96.5333 144.867 93.2 141.8C89.8667 138.6 86.7333 136.333 83.8 135C82.0667 134.067 78.8667 133.133 74.2 132.2C67.9333 130.6 63.2 129.067 60 127.6C56.9333 126 55.4 123.533 55.4 120.2C55.4 117.933 56.4 115.733 58.4 113.6C60.4 111.333 63.4 108.533 67.4 105.2C71.4 101.867 74.4 99.1333 76.4 97C78.4 94.7333 79.4 92.4667 79.4 90.2C76.8667 89.5333 73.0667 89.2 68 89.2C65.7333 89.2 62.3333 89.3333 57.8 89.6C53.8 89.8667 50.7333 90 48.6 90C43.8 90 39.6667 89.2 36.2 87.6C32.8667 86 31.2 83.9333 31.2 81.4C31.2 78.6 31.4667 76.4 32 74.8C32.5333 73.0667 33.5333 72 35 71.6C35.9333 71.2 37.6 71 40 71C46.5333 71 52.2 71.2 57 71.6C62.3333 71.8667 66.4 72 69.2 72L85.8 71.8C99.4 71.8 106.2 75.0667 106.2 81.6C106.2 86.5333 103.667 92.1333 98.6 98.4C93.6667 104.533 87.8 110.067 81 115ZM164.984 90.2C164.051 93.9333 163.451 98.8667 163.184 105C162.918 110.333 162.518 114.333 161.984 117C165.851 115.4 169.518 114.4 172.984 114C176.451 113.467 180.851 113.2 186.184 113.2C194.451 113.2 201.651 115.133 207.784 119C213.918 122.733 218.584 127.8 221.784 134.2C224.984 140.467 226.584 147.2 226.584 154.4C226.584 157.2 225.651 161 223.784 165.8C221.918 170.467 219.984 174.067 217.984 176.6C213.318 182.733 207.918 187.467 201.784 190.8C195.651 194 188.984 195.6 181.784 195.6C176.318 195.6 171.318 194.867 166.784 193.4C162.384 191.8 157.651 189.667 152.584 187C147.384 184.2 143.584 181.333 141.184 178.4C138.918 175.333 137.784 171.533 137.784 167C137.784 164.6 138.784 162.667 140.784 161.2C142.918 159.6 144.918 158.8 146.784 158.8C147.984 158.8 149.051 159.133 149.984 159.8C150.918 160.467 152.451 161.8 154.584 163.8L159.584 168.6C162.784 171.267 165.918 173.267 168.984 174.6C172.184 175.933 176.051 176.6 180.584 176.6C184.718 176.6 188.051 176.067 190.584 175C195.651 173 199.584 170.4 202.384 167.2C205.318 164 206.784 158.867 206.784 151.8C206.784 145 204.518 139.733 199.984 136C195.451 132.133 187.784 130.2 176.984 130.2C175.518 130.2 173.384 130.6 170.584 131.4C167.784 132.2 165.051 133.067 162.384 134C155.984 136.133 152.051 137.2 150.584 137.2C148.718 137.2 146.851 136.4 144.984 134.8C143.118 133.2 142.184 131.067 142.184 128.4C144.584 112.267 145.784 98.8667 145.784 88.2L145.584 83.2C145.318 80.8 145.184 78.8 145.184 77.2C145.184 74.8 146.451 73 148.984 71.8C151.651 70.4667 154.384 69.8 157.184 69.8C159.584 69.8 164.784 70.2 172.784 71L182.384 71.8C183.584 71.9333 185.384 72 187.784 72L195.184 71.8C196.651 71.6667 198.784 71.6 201.584 71.6C205.584 71.6 208.918 72.2 211.584 73.4C214.251 74.6 215.584 76.5333 215.584 79.2C215.584 83.3333 214.918 86.3333 213.584 88.2C212.251 90.0667 210.718 91 208.984 91C207.384 91 204.718 90.7333 200.984 90.2C196.051 89.6667 190.251 89.4 183.584 89.4C178.918 89.4 172.718 89.6667 164.984 90.2Z" fill="white"/>
</svg>

<svg xmlns="http://www.w3.org/2000/svg" width="250" height="250" fill="none" viewBox="0 0 250 250"><rect width="250" height="250" fill="#663" rx="30"/><path fill="#fff" d="M81 115q16.4 3.6 27.2 14.2t10.8 24.6q0 8.4-4 16.4-6.4 12.8-19.2 19.2-12.6 6.4-29.2 6.4-10.4 0-18.6-3.8-8.2-4-16.2-10.6-3-2.8-5.4-8-2.2-5.2-2.2-8.6 0-4.4 2.4-7 2.6-2.8 6.8-2.8t6.6 2 5.8 6.4q3.2 4.2 5.8 6.8 2.6 2.4 7 4.2t11 1.8q13.4 0 21-6.6t7.6-18.6q0-4.6-5-9.2-5-4.8-9.4-6.8-2.6-1.4-9.6-2.8-9.4-2.4-14.2-4.6-4.6-2.4-4.6-7.4 0-3.4 3-6.6 3-3.4 9-8.4t9-8.2q3-3.4 3-6.8-3.8-1-11.4-1-3.4 0-10.2.4-6 .4-9.2.4-7.2 0-12.4-2.4-5-2.4-5-6.2 0-4.2.8-6.6.8-2.6 3-3.2 1.4-.6 5-.6 9.8 0 17 .6 8 .4 12.2.4l16.6-.2q20.4 0 20.4 9.8 0 7.4-7.6 16.8-7.4 9.2-17.6 16.6m83.984-24.8q-1.4 5.6-1.8 14.8-.399 8-1.2 12 5.8-2.4 11-3 5.2-.8 13.2-.8 12.4 0 21.6 5.8 9.2 5.6 14 15.2 4.8 9.4 4.8 20.2 0 4.2-2.8 11.4-2.8 7-5.8 10.8-6.999 9.2-16.2 14.2-9.2 4.8-20 4.8-8.199 0-15-2.2-6.6-2.4-14.2-6.4-7.8-4.2-11.4-8.6-3.4-4.6-3.4-11.4 0-3.6 3-5.8 3.201-2.4 6-2.4 1.8 0 3.2 1t4.6 4l5 4.8q4.8 4 9.4 6 4.8 2 11.6 2 6.2 0 10-1.6 7.6-3 11.8-7.8 4.4-4.8 4.4-15.4 0-10.2-6.8-15.8-6.8-5.8-23-5.8-2.2 0-6.4 1.2t-8.2 2.6q-9.6 3.2-11.8 3.2-2.8 0-5.6-2.4t-2.8-6.4q3.6-24.2 3.6-40.2l-.2-5q-.4-3.6-.4-6 0-3.6 3.8-5.4 4-2 8.2-2 3.6 0 15.6 1.2l9.6.8q1.8.2 5.4.2l7.4-.2q2.2-.2 6.4-.2 6 0 10 1.8t4 5.8q0 6.2-2 9t-4.6 2.8q-2.4 0-8-.8-7.4-.8-17.4-.8-6.999 0-18.6.8"/></svg>
